svgs/sharp-solid/message-bot.svg

<svg xmlns="http://www.w3.org/2000/svg" viewBox="0 0 640 512"><!--! Font Awesome Pro 6.6.0 by @fontawesome - https://fontawesome.com License - https://fontawesome.com/license (Commercial License) Copyright 2024 Fonticons, Inc. --><path d="M544 0L96 0l0 176-32 0 0-16L0 160l0 64 64 0 0-16 32 0 0 208 128 0 0 96 144-96 176 0 0-208 32 0 0 16 64 0 0-64-64 0 0 16-32 0L544 0zM160 96l320 0 0 192-320 0 0-192zm64 128a32 32 0 1 0 0-64 32 32 0 1 0 0 64zm224-32a32 32 0 1 0 -64 0 32 32 0 1 0 64 0z"/></svg>

<svg xmlns="http://www.w3.org/2000/svg" viewBox="0 0 640 512"><!--! Font Awesome Pro 6.4.0 by @fontawesome - https://fontawesome.com License - https://fontawesome.com/license (Commercial License) Copyright 2023 Fonticons, Inc. --><path d="M544 0H96V176H64V160H0v64H64V208H96V416H224v96l144-96H544V208h32v16h64V160H576v16H544V0zM160 96H480V288H160V96zm64 128a32 32 0 1 0 0-64 32 32 0 1 0 0 64zm224-32a32 32 0 1 0 -64 0 32 32 0 1 0 64 0z"/></svg>
